X: 1
T: Rolling In The Ryegrass
R: reel
M: 4/4
L: 1/8
K: Dmaj
|:A2AB AFDF|G2BG dGBG|ABAF DFAF|GBAG E2D2:||:ABde f2fd|g2ge fedB|ABde fefa|gfdf e2d2:|


Tune 87	Setting 29745

